src/icons/CommentBubble_BehindtheScenes-01.svg

<svg width="73" height="63" viewBox="0 0 73 63" fill="none" xmlns="http://www.w3.org/2000/svg">
<g clip-path="url(#clip0)">
<path d="M58.75 0H13.34C9.80201 0 6.40893 1.40546 3.9072 3.9072C1.40546 6.40893 0 9.80201 0 13.34L0 38.94C0.0020084 41.8817 0.977041 44.7401 2.77316 47.0698C4.56928 49.3995 7.0856 51.0697 9.93 51.82C8.98 54.59 6.87 57.62 2.79 60.69C1.72 61.5 3.18 62.39 6.12 62.39C10.67 62.39 18.79 60.24 26.59 52.28H58.75C60.5014 52.28 62.2356 51.9349 63.8535 51.2644C65.4714 50.5938 66.9413 49.6111 68.1793 48.3722C69.4172 47.1333 70.3989 45.6627 71.0682 44.0442C71.7375 42.4258 72.0813 40.6914 72.08 38.94V13.34C72.0813 11.5886 71.7375 9.85418 71.0682 8.23576C70.3989 6.61733 69.4172 5.14667 68.1793 3.9078C66.9413 2.66894 65.4714 1.68616 63.8535 1.01564C62.2356 0.345121 60.5014 -4.92817e-07 58.75 0V0ZM66.11 38.94C66.1074 40.8912 65.3311 42.7617 63.9514 44.1414C62.5717 45.5211 60.7012 46.2974 58.75 46.3H24.08L22.32 48.09C20.3603 50.1225 18.1412 51.8877 15.72 53.34L17.65 47.68L11.45 46C9.89323 45.5834 8.51652 44.6668 7.53177 43.3911C6.54702 42.1155 6.00882 40.5515 6 38.94V13.34C6.0079 11.3957 6.78375 9.53337 8.15856 8.15856C9.53337 6.78375 11.3957 6.0079 13.34 6H58.75C60.7012 6.00265 62.5717 6.77892 63.9514 8.15862C65.3311 9.53831 66.1074 11.4088 66.11 13.36V38.94Z" fill="#C06D3A"/>
<path d="M55.0098 15.88H17.0698V21.86H55.0098V15.88Z" fill="#C06D3A"/>
<path d="M55.0098 30.32H17.0698V36.3H55.0098V30.32Z" fill="#C06D3A"/>
</g>
<defs>
<clipPath id="clip0">
<rect width="72.08" height="62.39" fill="white"/>
</clipPath>
</defs>
</svg>

<svg width="73" height="63" viewBox="0 0 73 63" fill="none" xmlns="http://www.w3.org/2000/svg"><g clip-path="url(#clip0)" fill="#C06D3A"><path d="M58.75 0H13.34A13.34 13.34 0 0 0 0 13.34v25.6a13.33 13.33 0 0 0 9.93 12.88c-.95 2.77-3.06 5.8-7.14 8.87-1.07.81.39 1.7 3.33 1.7 4.55 0 12.67-2.15 20.47-10.11h32.16a13.33 13.33 0 0 0 13.33-13.34v-25.6A13.33 13.33 0 0 0 58.75 0zm7.36 38.94a7.37 7.37 0 0 1-7.36 7.36H24.08l-1.76 1.79a32.117 32.117 0 0 1-6.6 5.25l1.93-5.66-6.2-1.68A7.35 7.35 0 0 1 6 38.94v-25.6A7.37 7.37 0 0 1 13.34 6h45.41a7.37 7.37 0 0 1 7.36 7.36v25.58z"/><path d="M55.01 15.88H17.07v5.98h37.94v-5.98zM55.01 30.32H17.07v5.98h37.94v-5.98z"/></g><defs><clipPath id="clip0"><path fill="#fff" d="M0 0h72.08v62.39H0z"/></clipPath></defs></svg>
